X:1
T:Title
%%score { 1 | ( 2 3 ) }
L:1/8
M:4/4
K:Bb
V:1 treble nm="Grand Piano"
V:2 bass 
V:3 bass 
V:1
 z4 z2[Q:1/4=100] [B,D]>[CE] | [DF]2 [DB]2 [Fd]2 [Ge]>[Fd] | c2 G2 G2 G>B | A2 E2 E2 G>A | %4
[M:9/8] [EG]2 [DF]- [DF] [DF]2- [DF][B,D]>[CE] |[M:4/4] [DF]2 [DB]2 [Fd]2 [Ge]>[Fd] | %6
 [Ec]2 [EG]2 .[Gc]2 [B,FA][B,EG] | [DF]2 [Fd]>[Ge] dc G>A |[M:3/4] [DB]6 |[M:1/4] [Ge]>d | %10
[M:4/4] c2 c2 c2 B>B | c2 =B2 c2 d>c | [DB]2 [DB]2 [DB]2 A>A | [DB]2 A2 [DB]2 [DB]>[Ec] | %14
 A2 A2 A2 E>E | A2 A2 A2 G>G | FGAe d c3 |[M:3/4] [DB]6 |] %18
V:2
 z4 z2 [B,,F,]>[B,,F,] | [B,,B,]2 [B,,B,]2 [B,,B,]2 [B,,B,]>[B,,B,] | %2
 [E,G,E]2 [E,B,E]2 [E,B,E]2 [E,B,E]>[E,G,E] | [F,CE]2 [F,A,C]2 [F,A,C]2 [F,A,E]>[F,A,E] | %4
[M:9/8] [B,,B,]2 [B,,B,]- [B,,B,] [B,,B,]2- [B,,B,][B,,F,]>[B,,F,] | %5
[M:4/4] [B,,B,]2 [B,,B,]2 [B,,B,]2 [B,,B,]>[B,,B,] | [E,G,]2 [E,B,]2 z[K:treble] B[K:bass]E,E, | %7
 [B,,B,]2 [B,,B,]>[B,,B,] [B,F][A,E] [F,CE]>[F,CE] |[M:3/4] [B,,B,]6 |[M:1/4] [F,A,]>[F,A,F] | %10
[M:4/4] [F,A,E]2 [F,A,E]2 [F,A,E]2 [F,_A,D]>[F,A,D] | %11
 [F,A,E]2 [F,_A,D]2 [F,=A,E]2 [F,A,F]>[F,A,E] | [B,,B,]2 [B,,B,]2 [B,,B,]2 [F,C]>[F,C] | %13
 [B,,F,]2 [F,C]2 [B,,F,]2 [B,,B,]>[B,,B,] | [F,CE]2 [F,CE]2 [F,CE]2 [F,A,C]>[F,A,C] | %15
 [F,CE]2 [F,CE]2 [F,CE]2 [F,B,E]>[F,B,E] | %16
 [F,A,E][F,B,E][CE][K:treble][A,G] [F,B,F][K:bass] [F,B,E]3 |[M:3/4] [B,,B,]6 |] %18
V:3
 x8 | x8 | x8 | x8 |[M:9/8] x9 |[M:4/4] x8 | z4 [E,G,]2[K:treble][K:bass] z2 | z4 F,2 z2 | %8
[M:3/4] x6 |[M:1/4] x2 |[M:4/4] x8 | x8 | x8 | x8 | x8 | x8 | z2 F,2[K:treble] z4[K:bass] | %17
[M:3/4] x6 |] %18

